synths/sCAD.svg

<svg width="42" height="42" viewBox="0 0 42 42" fill="none" xmlns="http://www.w3.org/2000/svg">
<g clip-path="url(#clip0_7277_57826)">
<mask id="mask0_7277_57826" style="mask-type:alpha" maskUnits="userSpaceOnUse" x="0" y="0" width="42" height="42">
<circle cx="21" cy="21" r="21" fill="url(#paint0_linear_7277_57826)"/>
</mask>
<g mask="url(#mask0_7277_57826)">
<circle cx="21" cy="21" r="21" fill="#34EDB3"/>
<circle cx="21" cy="21" r="18.2" fill="white"/>
</g>
<circle cx="21" cy="21" r="16.1" fill="#06061B"/>
<circle cx="21" cy="21" r="16.1" fill="#06061B"/>
<path d="M16.4886 26.7173C15.8481 26.7173 15.2443 26.6228 14.6773 26.4338C14.1208 26.2343 13.6221 25.9141 13.1811 25.4731C12.5826 24.8641 12.1731 24.1816 11.9526 23.4256C11.7426 22.6696 11.6376 21.8296 11.6376 20.9056C11.6376 19.9816 11.7426 19.1468 11.9526 18.4013C12.1731 17.6453 12.5878 16.9628 13.1968 16.3538C13.6378 15.9128 14.1366 15.5978 14.6931 15.4088C15.2601 15.2093 15.8586 15.1096 16.4886 15.1096C17.0871 15.1096 17.6436 15.2093 18.1581 15.4088C18.6726 15.5978 19.1241 15.8708 19.5126 16.2278C19.9011 16.5848 20.2108 17.0101 20.4418 17.5036C20.6728 17.9866 20.8093 18.5221 20.8513 19.1101H18.7723C18.7198 18.4276 18.4888 17.8973 18.0793 17.5193C17.6698 17.1413 17.1186 16.9523 16.4256 16.9523C16.0686 16.9523 15.7326 17.0153 15.4176 17.1413C15.1026 17.2673 14.8348 17.4511 14.6143 17.6926C14.2468 18.0916 14.0001 18.5483 13.8741 19.0628C13.7586 19.5773 13.7008 20.1916 13.7008 20.9056C13.7008 21.6196 13.7586 22.2391 13.8741 22.7641C14.0001 23.2786 14.2468 23.7353 14.6143 24.1343C15.0763 24.6278 15.6801 24.8746 16.4256 24.8746C17.0871 24.8746 17.6226 24.6908 18.0321 24.3233C18.4416 23.9453 18.6883 23.4203 18.7723 22.7483H20.8513C20.7883 23.3573 20.6308 23.9086 20.3788 24.4021C20.1373 24.8851 19.8223 25.2998 19.4338 25.6463C19.0453 25.9928 18.5991 26.2606 18.0951 26.4496C17.5911 26.6281 17.0556 26.7173 16.4886 26.7173Z" fill="white"/>
<path d="M25.6868 26.4496C25.1618 26.4076 24.6683 26.2921 24.2063 26.1031C23.7443 25.9036 23.3453 25.6463 23.0093 25.3313C22.6733 25.0163 22.4056 24.6541 22.2061 24.2446C22.0066 23.8351 21.9016 23.3888 21.8911 22.9058H23.8283C23.8493 23.4203 24.0278 23.8508 24.3638 24.1973C24.7103 24.5333 25.1513 24.7276 25.6868 24.7801V21.6616L24.9466 21.5513C24.0961 21.4358 23.4188 21.1156 22.9148 20.5906C22.4213 20.0656 22.1746 19.3988 22.1746 18.5903C22.1746 18.1703 22.2691 17.7766 22.4581 17.4091C22.6471 17.0311 22.9043 16.7003 23.2298 16.4168C23.5553 16.1228 23.9281 15.8866 24.3481 15.7081C24.7786 15.5296 25.2248 15.4193 25.6868 15.3773V13.9126H26.8366V15.4088C27.3091 15.4718 27.7448 15.5978 28.1438 15.7868C28.5428 15.9653 28.8893 16.1963 29.1833 16.4798C29.4773 16.7633 29.7083 17.0888 29.8763 17.4563C30.0548 17.8238 30.1546 18.2176 30.1756 18.6376H28.2383C28.2173 18.2596 28.0756 17.9341 27.8131 17.6611C27.5611 17.3776 27.2356 17.1833 26.8366 17.0783V19.9606L27.3721 20.0393C27.7711 20.1023 28.1491 20.2126 28.5061 20.3701C28.8631 20.5276 29.1728 20.7323 29.4353 20.9843C29.7083 21.2363 29.9183 21.5408 30.0653 21.8978C30.2228 22.2443 30.3016 22.6381 30.3016 23.0791C30.3016 23.5516 30.2123 23.9821 30.0338 24.3706C29.8658 24.7486 29.6243 25.0846 29.3093 25.3786C29.0048 25.6621 28.6373 25.8983 28.2068 26.0873C27.7868 26.2658 27.3301 26.3813 26.8366 26.4338V28.0561H25.6868V26.4496ZM26.8366 24.7643C27.3301 24.6803 27.7133 24.5018 27.9863 24.2288C28.2593 23.9453 28.3958 23.5883 28.3958 23.1578C28.3958 22.7588 28.2646 22.4648 28.0021 22.2758C27.7396 22.0763 27.4403 21.9451 27.1043 21.8821L26.8366 21.8348V24.7643ZM25.6868 17.0311C25.2458 17.0941 24.8678 17.2568 24.5528 17.5193C24.2483 17.7713 24.0961 18.1126 24.0961 18.5431C24.0961 18.9106 24.1958 19.1888 24.3953 19.3778C24.6053 19.5563 24.8783 19.6718 25.2143 19.7243L25.6868 19.8031V17.0311Z" fill="white"/>
</g>
<defs>
<linearGradient id="paint0_linear_7277_57826" x1="21" y1="0" x2="21" y2="61.4091" gradientUnits="userSpaceOnUse">
<stop stop-color="#08021E"/>
<stop offset="1" stop-color="#1F0777"/>
</linearGradient>
<clipPath id="clip0_7277_57826">
<rect width="42" height="42" fill="white"/>
</clipPath>
</defs>
</svg>

<svg xmlns="http://www.w3.org/2000/svg" width="42" height="42" fill="none"><g clip-path="url(#a)"><mask id="c" width="42" height="42" x="0" y="0" maskUnits="userSpaceOnUse" style="mask-type:alpha"><circle cx="21" cy="21" r="21" fill="url(#b)"/></mask><g mask="url(#c)"><circle cx="21" cy="21" r="21" fill="#34EDB3"/><circle cx="21" cy="21" r="18.2" fill="#fff"/></g><circle cx="21" cy="21" r="16.1" fill="#06061B"/><circle cx="21" cy="21" r="16.1" fill="#06061B"/><path fill="#fff" d="M16.489 26.717c-.64 0-1.245-.094-1.812-.283a4.017 4.017 0 0 1-1.496-.96c-.598-.61-1.008-1.292-1.228-2.048-.21-.756-.315-1.596-.315-2.52 0-.924.105-1.76.315-2.505.22-.756.635-1.438 1.244-2.047a3.85 3.85 0 0 1 1.496-.945 5.37 5.37 0 0 1 1.796-.3c.598 0 1.155.1 1.67.3.514.189.965.462 1.354.819.388.357.698.782.929 1.276.23.483.367 1.018.41 1.606h-2.08c-.052-.682-.283-1.213-.693-1.59-.41-.379-.96-.568-1.653-.568-.357 0-.693.063-1.008.19-.315.125-.583.31-.804.55a3.074 3.074 0 0 0-.74 1.37c-.115.515-.173 1.13-.173 1.844 0 .714.058 1.333.173 1.858.126.515.373.971.74 1.37.462.494 1.066.74 1.812.74.661 0 1.197-.183 1.606-.55.41-.379.656-.904.74-1.576h2.08a4.657 4.657 0 0 1-.473 1.654 4.113 4.113 0 0 1-2.284 2.048 4.777 4.777 0 0 1-1.606.267ZM25.687 26.45a4.922 4.922 0 0 1-1.48-.347 4.118 4.118 0 0 1-1.198-.772 3.7 3.7 0 0 1-.803-1.086c-.2-.41-.304-.856-.315-1.34h1.937c.021.515.2.946.536 1.292.346.336.787.53 1.323.583v-3.118l-.74-.11c-.85-.116-1.528-.436-2.032-.961-.494-.525-.74-1.192-.74-2 0-.42.094-.814.283-1.182.19-.378.446-.709.772-.992.325-.294.698-.53 1.118-.709.43-.178.877-.289 1.339-.33v-1.465h1.15v1.496c.472.063.908.189 1.307.378a3.6 3.6 0 0 1 1.04.693c.293.283.524.609.692.976.179.368.279.762.3 1.182h-1.938a1.485 1.485 0 0 0-.425-.977 1.928 1.928 0 0 0-.976-.583v2.883l.535.078c.4.063.777.174 1.134.331.357.158.667.362.93.614.272.252.482.557.63.914.157.346.236.74.236 1.181a3.082 3.082 0 0 1-.992 2.3c-.305.283-.673.52-1.103.708-.42.179-.877.294-1.37.347v1.622h-1.15V26.45Zm1.15-1.686c.493-.084.876-.262 1.15-.535.272-.284.409-.64.409-1.071 0-.4-.131-.693-.394-.882-.262-.2-.562-.33-.898-.394l-.267-.047v2.93Zm-1.15-7.733a2.223 2.223 0 0 0-1.134.488c-.305.252-.457.594-.457 1.024 0 .368.1.646.3.835.21.178.482.294.818.346l.473.08V17.03Z"/></g><defs><linearGradient id="b" x1="21" x2="21" y1="0" y2="61.409" gradientUnits="userSpaceOnUse"><stop stop-color="#08021E"/><stop offset="1" stop-color="#1F0777"/></linearGradient><clipPath id="a"><path fill="#fff" d="M0 0h42v42H0z"/></clipPath></defs></svg>
